images/twitter.svg

<svg width="24" height="24" viewBox="0 0 24 24" fill="none" xmlns="http://www.w3.org/2000/svg">
<g clip-path="url(#clip0_588_2159)">
<path d="M24 4.55699C23.117 4.94899 22.168 5.21299 21.172 5.33199C22.189 4.72299 22.97 3.75799 23.337 2.60799C22.386 3.17199 21.332 3.58199 20.21 3.80299C19.313 2.84599 18.032 2.24799 16.616 2.24799C13.437 2.24799 11.101 5.21399 11.819 8.29299C7.728 8.08799 4.1 6.12799 1.671 3.14899C0.381 5.36199 1.002 8.25699 3.194 9.72299C2.388 9.69699 1.628 9.47599 0.965 9.10699C0.911 11.388 2.546 13.522 4.914 13.997C4.221 14.185 3.462 14.229 2.69 14.081C3.316 16.037 5.134 17.46 7.29 17.5C5.22 19.123 2.612 19.848 0 19.54C2.179 20.937 4.768 21.752 7.548 21.752C16.69 21.752 21.855 14.031 21.543 7.10599C22.505 6.41099 23.34 5.54399 24 4.55699V4.55699Z" fill="#373A3E"/>
</g>
<defs>
<clipPath id="clip0_588_2159">
<rect width="24" height="24" fill="white"/>
</clipPath>
</defs>
</svg>

<svg xmlns="http://www.w3.org/2000/svg" width="24" height="24" viewBox="0 0 24 24"><path d="M24 4.557c-.883.392-1.832.656-2.828.775 1.017-.609 1.798-1.574 2.165-2.724-.951.564-2.005.974-3.127 1.195-.897-.957-2.178-1.555-3.594-1.555-3.179 0-5.515 2.966-4.797 6.045-4.091-.205-7.719-2.165-10.148-5.144-1.29 2.213-.669 5.108 1.523 6.574-.806-.026-1.566-.247-2.229-.616-.054 2.281 1.581 4.415 3.949 4.89-.693.188-1.452.232-2.224.084.626 1.956 2.444 3.379 4.6 3.419-2.07 1.623-4.678 2.348-7.29 2.04 2.179 1.397 4.768 2.212 7.548 2.212 9.142 0 14.307-7.721 13.995-14.646.962-.695 1.797-1.562 2.457-2.549z" style="fill:#fff;"/></svg>
